packages/foundations/assets/icons/functional/images/human/hand_washing.svg

<svg xmlns="http://www.w3.org/2000/svg" width="32" height="32" fill="none"><path fill="#1A1C1F" fill-rule="evenodd" d="M2.571 2.619c-.618.309-.753 1.11-.266 1.579.332.32.136.306 4.685.335l4.189.027.4.198a2.53 2.53 0 0 1 1.378 1.855c.031.191.056.917.056 1.614v1.266H9.029L8.999 9c-.068-1.114-.647-1.948-1.627-2.343-.298-.12-.358-.123-2.385-.14-1.421-.012-2.144.001-2.281.042a.98.98 0 0 0-.653.657.95.95 0 0 0 .287 1.012c.311.281.517.305 2.569.305 2.219 0 2.045-.077 2.095.934.037.736.303 1.272.82 1.647.514.374.562.379 3.216.379 2.35 0 2.376-.001 2.675-.122a2.01 2.01 0 0 0 1.165-1.21c.098-.286.107-.447.106-2.023 0-1.525-.012-1.76-.106-2.155a4.4 4.4 0 0 0-1.321-2.253c-.6-.562-1.111-.848-1.962-1.1-.289-.085-.697-.095-4.557-.11L2.8 2.504zm4.94 10.022c-.38.201-.6.711-.479 1.112.179.599.819.904 1.37.653.585-.265.769-.978.392-1.508-.248-.349-.873-.473-1.283-.257m6.009-.008a1.6 1.6 0 0 0-.276.227c-.379.413-.277 1.132.207 1.467.184.128.274.153.549.153s.365-.025.549-.153c.37-.256.537-.778.381-1.19-.07-.184-.294-.427-.487-.528-.212-.111-.728-.097-.923.024m-2.781.911c-.417.1-.725.512-.725.971 0 .623.635 1.114 1.232.954.418-.113.752-.54.752-.962 0-.414-.331-.846-.733-.958-.222-.062-.285-.062-.526-.005m-3.722 2.251a.973.973 0 0 0-.676 1.352c.404.876 1.61.775 1.871-.157a.95.95 0 0 0-.47-1.09c-.261-.131-.472-.161-.725-.105m7.543-.007c-.253.044-.382.12-.577.342-.273.311-.297.823-.054 1.181.137.203.572.449.794.449.368 0 .746-.234.904-.56.186-.385.127-.818-.15-1.111a.97.97 0 0 0-.917-.301m-4.081.872c-.6.368-.623 1.241-.043 1.651.511.36 1.2.165 1.464-.415a.97.97 0 0 0-.302-1.181c-.164-.125-.262-.155-.552-.17-.3-.014-.385.003-.567.115m7.841 1.923c-.734.166-1.293.485-1.867 1.065-.466.471-.76.973-.905 1.547a2.4 2.4 0 0 1-.1.334c-.01.011-.725-.254-1.587-.588-1.921-.746-2.168-.808-3.194-.804-.881.003-1.376.1-2.12.414-.558.236-1.29.721-1.525 1.011-.623.768-.734 1.751-.296 2.611.157.307.636.796.941.959.267.143 7.738 2.868 8.333 3.039.191.054.623.15.96.211.563.102.891.115 3.973.149l3.36.038 2.265.462c1.246.254 2.35.462 2.454.461.893-.005 1.312-1.146.633-1.727-.252-.216-.034-.161-3.165-.788l-2.187-.438-3.413-.035c-3.631-.038-3.579-.034-4.515-.317-.779-.235-7.689-2.773-7.784-2.859-.148-.133-.129-.374.042-.533.195-.18.827-.482 1.215-.581.418-.106 1.282-.104 1.701.004.308.08 2.204.818 4.296 1.673 1.545.632 1.353.6 3.818.629 2.319.026 2.64.001 2.942-.229.532-.406.511-1.243-.04-1.607l-.227-.151-2.252-.026c-2.156-.026-2.257-.032-2.371-.134a.9.9 0 0 1-.195-.284c-.172-.407.281-1.159.862-1.43.267-.124.274-.125 2.481-.125 2.429 0 2.762.029 3.636.32 1 .334 1.464.607 3.035 1.789.531.4 1.047.76 1.146.802.26.109.446.093.76-.063a.975.975 0 0 0 .444-1.341c-.124-.243-.69-.713-1.859-1.544-1.238-.878-2.07-1.31-3.124-1.617-1.095-.319-1.241-.332-3.851-.352-1.88-.013-2.469-.001-2.72.055"/></svg>

<svg width="32" height="32" viewBox="0 0 32 32" fill="none" xmlns="http://www.w3.org/2000/svg"><path d="M2.571 2.619 C 1.953 2.928,1.818 3.729,2.305 4.198 C 2.637 4.518,2.441 4.504,6.990 4.533 L 11.179 4.560 11.579 4.758 C 12.310 5.119,12.831 5.820,12.957 6.613 C 12.988 6.804,13.013 7.530,13.013 8.227 L 13.013 9.493 11.021 9.493 L 9.029 9.493 8.999 9.000 C 8.931 7.886,8.352 7.052,7.372 6.657 C 7.074 6.537,7.014 6.534,4.987 6.517 C 3.566 6.505,2.843 6.518,2.706 6.559 C 2.395 6.651,2.147 6.901,2.053 7.216 C 1.941 7.595,2.045 7.961,2.340 8.228 C 2.651 8.509,2.857 8.533,4.909 8.533 C 7.128 8.533,6.954 8.456,7.004 9.467 C 7.041 10.203,7.307 10.739,7.824 11.114 C 8.338 11.488,8.386 11.493,11.040 11.493 C 13.390 11.493,13.416 11.492,13.715 11.371 C 14.270 11.147,14.691 10.710,14.880 10.161 C 14.978 9.875,14.987 9.714,14.986 8.138 C 14.986 6.613,14.974 6.378,14.880 5.983 C 14.667 5.097,14.239 4.366,13.559 3.730 C 12.959 3.168,12.448 2.882,11.597 2.630 C 11.308 2.545,10.900 2.535,7.040 2.520 L 2.800 2.504 2.571 2.619 M7.511 12.641 C 7.131 12.842,6.911 13.352,7.032 13.753 C 7.211 14.352,7.851 14.657,8.402 14.406 C 8.987 14.141,9.171 13.428,8.794 12.898 C 8.546 12.549,7.921 12.425,7.511 12.641 M13.520 12.633 C 13.432 12.688,13.308 12.790,13.244 12.860 C 12.865 13.273,12.967 13.992,13.451 14.327 C 13.635 14.455,13.725 14.480,14.000 14.480 C 14.275 14.480,14.365 14.455,14.549 14.327 C 14.919 14.071,15.086 13.549,14.930 13.137 C 14.860 12.953,14.636 12.710,14.443 12.609 C 14.231 12.498,13.715 12.512,13.520 12.633 M10.739 13.544 C 10.322 13.644,10.014 14.056,10.014 14.515 C 10.014 15.138,10.649 15.629,11.246 15.469 C 11.664 15.356,11.998 14.929,11.998 14.507 C 11.998 14.093,11.667 13.661,11.265 13.549 C 11.043 13.487,10.980 13.487,10.739 13.544 M7.017 15.795 C 6.412 15.931,6.083 16.588,6.341 17.147 C 6.745 18.023,7.951 17.922,8.212 16.990 C 8.331 16.567,8.126 16.092,7.742 15.900 C 7.481 15.769,7.270 15.739,7.017 15.795 M14.560 15.788 C 14.307 15.832,14.178 15.908,13.983 16.130 C 13.710 16.441,13.686 16.953,13.929 17.311 C 14.066 17.514,14.501 17.760,14.723 17.760 C 15.091 17.760,15.469 17.526,15.627 17.200 C 15.813 16.815,15.754 16.382,15.477 16.089 C 15.228 15.826,14.921 15.725,14.560 15.788 M10.479 16.660 C 9.879 17.028,9.856 17.901,10.436 18.311 C 10.947 18.671,11.636 18.476,11.900 17.896 C 12.090 17.476,11.968 16.997,11.598 16.715 C 11.434 16.590,11.336 16.560,11.046 16.545 C 10.746 16.531,10.661 16.548,10.479 16.660 M18.320 18.583 C 17.586 18.749,17.027 19.068,16.453 19.648 C 15.987 20.119,15.693 20.621,15.548 21.195 C 15.504 21.368,15.459 21.518,15.448 21.529 C 15.438 21.540,14.723 21.275,13.861 20.941 C 11.940 20.195,11.693 20.133,10.667 20.137 C 9.786 20.140,9.291 20.237,8.547 20.551 C 7.989 20.787,7.257 21.272,7.022 21.562 C 6.399 22.330,6.288 23.313,6.726 24.173 C 6.883 24.480,7.362 24.969,7.667 25.132 C 7.934 25.275,15.405 28.000,16.000 28.171 C 16.191 28.225,16.623 28.321,16.960 28.382 C 17.523 28.484,17.851 28.497,20.933 28.531 L 24.293 28.569 26.558 29.031 C 27.804 29.285,28.908 29.493,29.012 29.492 C 29.905 29.487,30.324 28.346,29.645 27.765 C 29.393 27.549,29.611 27.604,26.480 26.977 L 24.293 26.539 20.880 26.504 C 17.249 26.466,17.301 26.470,16.365 26.187 C 15.586 25.952,8.676 23.414,8.581 23.328 C 8.433 23.195,8.452 22.954,8.623 22.795 C 8.818 22.615,9.450 22.313,9.838 22.214 C 10.256 22.108,11.120 22.110,11.539 22.218 C 11.847 22.298,13.743 23.036,15.835 23.891 C 17.380 24.523,17.188 24.491,19.653 24.520 C 21.972 24.546,22.293 24.521,22.595 24.291 C 23.127 23.885,23.106 23.048,22.555 22.684 L 22.328 22.533 20.076 22.507 C 17.920 22.481,17.819 22.475,17.705 22.373 C 17.639 22.315,17.551 22.187,17.510 22.089 C 17.338 21.682,17.791 20.930,18.372 20.659 C 18.639 20.535,18.646 20.534,20.853 20.534 C 23.282 20.534,23.615 20.563,24.489 20.854 C 25.489 21.188,25.953 21.461,27.524 22.643 C 28.055 23.043,28.571 23.403,28.670 23.445 C 28.930 23.554,29.116 23.538,29.430 23.382 C 29.940 23.127,30.132 22.547,29.874 22.041 C 29.750 21.798,29.184 21.328,28.015 20.497 C 26.777 19.619,25.945 19.187,24.891 18.880 C 23.796 18.561,23.650 18.548,21.040 18.528 C 19.160 18.515,18.571 18.527,18.320 18.583 " fill="#1A1C1F" stroke="none" fill-rule="evenodd"></path></svg>
